src/assets/icons/logo.svg

<svg width="119" height="44" viewBox="0 0 119 44" fill="none" xmlns="http://www.w3.org/2000/svg">
<path d="M3.96079 12.9691V18.4677L10.6592 24.0206L8.71921 25.6582L1.10574 19.2079V10.8826C0.936554 8.09098 3.36158 9.22595 4.59525 10.1424L10.1996 14.0549C16.6499 19.2079 14.7465 24.4176 12.8432 25.9755L4.38376 33.2717L6.07564 38.5588L15.6982 29.5707L14.0063 27.7731H19.1877L17.7073 29.5707L26.9069 38.0584L29.0218 33.166L23.8404 28.9363C16.3327 23.4376 18.9762 18.1505 21.1968 16.3529L29.5505 9.79686C32.0883 7.51282 32.5113 9.19765 32.4055 10.3256V19.2079L24.4748 25.9755L22.783 24.0721L29.339 18.362V12.9691L22.5715 18.1505C18.088 22.8032 27.7529 28.9363 32.617 32.5315L27.8586 43L16.6499 32.5315L4.17228 43L1 32.5315L10.6592 24.1322L10.7991 24.0016C14.7934 19.9535 7.92073 14.9666 3.96079 12.9691Z" fill="#295DFA" stroke="#295DFA" stroke-width="0.211485"/>
<path d="M10.7283 23.8889L8.61348 25.7923L2.69189 20.7166L4.80675 19.0247L10.7283 23.8889Z" fill="url(#paint0_linear_303_3999)"/>
<path d="M24.6864 26.2153L22.6772 23.8889L28.9161 18.6018L30.6079 20.9281L24.6864 26.2153Z" fill="url(#paint1_linear_303_3999)"/>
<path d="M49.7862 23.4803C49.7862 23.0384 49.7265 22.6085 49.6071 22.1904C49.4996 21.7724 49.3145 21.4021 49.0517 21.0797C48.8009 20.7452 48.4665 20.4765 48.0484 20.2735C47.6304 20.0704 47.1228 19.9689 46.5256 19.9689C45.4746 19.9689 44.6505 20.2735 44.0533 20.8826C43.4561 21.4798 43.0619 22.3457 42.8708 23.4803H49.7862ZM42.7992 26.7051C42.9783 28.2578 43.4501 29.3865 44.2145 30.0912C44.9789 30.7839 45.9643 31.1303 47.1706 31.1303C47.8155 31.1303 48.3709 31.0526 48.8367 30.8974C49.3025 30.7421 49.7146 30.5689 50.0729 30.3778C50.4431 30.1867 50.7776 30.0135 51.0761 29.8583C51.3867 29.703 51.7092 29.6254 52.0436 29.6254C52.4855 29.6254 52.8199 29.7866 53.0468 30.1091L54.6592 32.0977C54.0859 32.7546 53.4649 33.2921 52.796 33.7101C52.1391 34.1162 51.4583 34.4386 50.7537 34.6775C50.0609 34.9045 49.3622 35.0597 48.6576 35.1433C47.9648 35.2389 47.3019 35.2866 46.6689 35.2866C45.3671 35.2866 44.1428 35.0776 42.9963 34.6596C41.8616 34.2296 40.8643 33.5966 40.0044 32.7606C39.1564 31.9245 38.4816 30.8854 37.9799 29.6433C37.4902 28.4011 37.2454 26.9559 37.2454 25.3077C37.2454 24.0656 37.4544 22.8891 37.8724 21.7784C38.3024 20.6676 38.9115 19.6942 39.6998 18.8581C40.5 18.0221 41.4615 17.3592 42.5842 16.8695C43.7188 16.3798 44.9968 16.135 46.4181 16.135C47.6483 16.135 48.771 16.3261 49.7862 16.7083C50.8134 17.0905 51.6912 17.6459 52.4198 18.3744C53.1603 19.103 53.7336 19.9988 54.1397 21.0617C54.5577 22.1128 54.7667 23.3072 54.7667 24.6448C54.7667 25.0629 54.7488 25.4033 54.713 25.666C54.6772 25.9288 54.6115 26.1378 54.5159 26.2931C54.4204 26.4483 54.289 26.5558 54.1218 26.6155C53.9665 26.6753 53.7635 26.7051 53.5127 26.7051H42.7992ZM62.6697 18.4282C63.028 18.0937 63.3983 17.7832 63.7805 17.4966C64.1627 17.2099 64.5688 16.971 64.9987 16.7799C65.4406 16.5769 65.9124 16.4216 66.414 16.3141C66.9276 16.1947 67.483 16.135 68.0802 16.135C69.0954 16.135 69.9912 16.3141 70.7675 16.6725C71.5558 17.0188 72.2187 17.5085 72.7561 18.1415C73.2936 18.7626 73.6997 19.5091 73.9744 20.381C74.2491 21.2409 74.3864 22.1785 74.3864 23.1937V35H68.8326V23.1937C68.8326 22.286 68.6236 21.5813 68.2056 21.0797C67.7876 20.5661 67.1725 20.3093 66.3603 20.3093C65.7512 20.3093 65.1779 20.4407 64.6404 20.7034C64.1149 20.9543 63.6013 21.3006 63.0997 21.7425V35H57.5459V16.4216H60.9857C61.6784 16.4216 62.1322 16.7322 62.3472 17.3532L62.6697 18.4282ZM86.5443 16.135C87.9537 16.135 89.2376 16.3559 90.3962 16.7979C91.5547 17.2398 92.546 17.8728 93.3701 18.6969C94.2062 19.521 94.8512 20.5243 95.305 21.7067C95.7708 22.8772 96.0037 24.197 96.0037 25.666C96.0037 27.147 95.7708 28.4847 95.305 29.6791C94.8512 30.8615 94.2062 31.8708 93.3701 32.7068C92.546 33.5309 91.5547 34.1699 90.3962 34.6238C89.2376 35.0657 87.9537 35.2866 86.5443 35.2866C85.123 35.2866 83.8272 35.0657 82.6567 34.6238C81.4981 34.1699 80.4949 33.5309 79.6469 32.7068C78.8108 31.8708 78.1599 30.8615 77.6941 29.6791C77.2402 28.4847 77.0133 27.147 77.0133 25.666C77.0133 24.197 77.2402 22.8772 77.6941 21.7067C78.1599 20.5243 78.8108 19.521 79.6469 18.6969C80.4949 17.8728 81.4981 17.2398 82.6567 16.7979C83.8272 16.3559 85.123 16.135 86.5443 16.135ZM86.5443 31.1661C87.8223 31.1661 88.7599 30.7182 89.3571 29.8224C89.9662 28.9147 90.2708 27.5412 90.2708 25.7019C90.2708 23.8625 89.9662 22.495 89.3571 21.5992C88.7599 20.7034 87.8223 20.2555 86.5443 20.2555C85.2305 20.2555 84.2691 20.7034 83.6599 21.5992C83.0508 22.495 82.7463 23.8625 82.7463 25.7019C82.7463 27.5412 83.0508 28.9147 83.6599 29.8224C84.2691 30.7182 85.2305 31.1661 86.5443 31.1661ZM103.924 18.4282C104.283 18.0937 104.653 17.7832 105.035 17.4966C105.417 17.2099 105.823 16.971 106.253 16.7799C106.695 16.5769 107.167 16.4216 107.669 16.3141C108.182 16.1947 108.738 16.135 109.335 16.135C110.35 16.135 111.246 16.3141 112.022 16.6725C112.81 17.0188 113.473 17.5085 114.011 18.1415C114.548 18.7626 114.954 19.5091 115.229 20.381C115.504 21.2409 115.641 22.1785 115.641 23.1937V35H110.087V23.1937C110.087 22.286 109.878 21.5813 109.46 21.0797C109.042 20.5661 108.427 20.3093 107.615 20.3093C107.006 20.3093 106.432 20.4407 105.895 20.7034C105.37 20.9543 104.856 21.3006 104.354 21.7425V35H98.8005V16.4216H102.24C102.933 16.4216 103.387 16.7322 103.602 17.3532L103.924 18.4282Z" fill="#295DFA"/>
<defs>
<linearGradient id="paint0_linear_303_3999" x1="9.45942" y1="24.8406" x2="3.85506" y2="19.8707" gradientUnits="userSpaceOnUse">
<stop stop-color="#012592"/>
<stop offset="1" stop-color="#3B69F1"/>
</linearGradient>
<linearGradient id="paint1_linear_303_3999" x1="29.5505" y1="19.6592" x2="23.6289" y2="24.8406" gradientUnits="userSpaceOnUse">
<stop stop-color="#3B69F1"/>
<stop offset="1" stop-color="#012592"/>
</linearGradient>
</defs>
</svg>

<svg xmlns="http://www.w3.org/2000/svg" width="119" height="44" fill="none"><path fill="#295DFA" stroke="#295DFA" stroke-width=".211" d="M3.96 12.97v5.498l6.7 5.553-1.94 1.637-7.614-6.45v-8.325c-.17-2.792 2.256-1.657 3.49-.74l5.604 3.912c6.45 5.153 4.546 10.363 2.643 11.92l-8.46 7.297 1.693 5.287 9.622-8.988-1.692-1.798h5.182l-1.48 1.798 9.199 8.487 2.115-4.892-5.182-4.23c-7.507-5.498-4.864-10.785-2.643-12.583l8.354-6.556c2.537-2.284 2.96-.6 2.855.529v8.882l-7.931 6.768-1.692-1.904 6.556-5.71v-5.393l-6.767 5.182c-4.484 4.652 5.18 10.785 10.045 14.38L27.859 43l-11.21-10.468L4.173 43 1 32.532l9.66-8.4.14-.13c3.993-4.049-2.88-9.035-6.84-11.033Z"/><path fill="url(#a)" d="m10.728 23.889-2.115 1.903-5.921-5.075 2.115-1.692 5.921 4.864Z"/><path fill="url(#b)" d="m24.686 26.215-2.009-2.326 6.24-5.287 1.69 2.326-5.92 5.287Z"/><path fill="#295DFA" d="M49.786 23.48c0-.442-.06-.872-.179-1.29a2.864 2.864 0 0 0-.555-1.11 2.7 2.7 0 0 0-1.004-.806c-.418-.204-.925-.305-1.522-.305-1.051 0-1.876.304-2.473.914-.597.597-.991 1.463-1.182 2.597h6.915ZM42.8 26.705c.18 1.553.651 2.682 1.416 3.386.764.693 1.75 1.04 2.956 1.04.645 0 1.2-.078 1.666-.234a8.024 8.024 0 0 0 1.236-.52c.37-.19.705-.363 1.003-.519.31-.155.633-.233.968-.233.442 0 .776.162 1.003.484l1.612 1.989a8.361 8.361 0 0 1-1.863 1.612 9.956 9.956 0 0 1-2.042.968c-.693.227-1.392.382-2.096.465-.693.096-1.356.144-1.99.144a10.64 10.64 0 0 1-3.672-.627 8.634 8.634 0 0 1-2.992-1.9c-.848-.835-1.522-1.875-2.024-3.117-.49-1.242-.735-2.687-.735-4.335 0-1.242.21-2.419.627-3.53a8.885 8.885 0 0 1 1.828-2.92 8.825 8.825 0 0 1 2.884-1.989c1.135-.49 2.413-.734 3.834-.734 1.23 0 2.353.191 3.368.573a7.24 7.24 0 0 1 2.634 1.666c.74.729 1.314 1.625 1.72 2.688.418 1.05.627 2.245.627 3.583 0 .418-.018.758-.054 1.021-.036.263-.102.472-.197.627a.747.747 0 0 1-.394.323c-.155.06-.358.09-.61.09H42.8Zm19.87-8.277c.359-.334.73-.645 1.112-.931a6.267 6.267 0 0 1 1.218-.717 6.785 6.785 0 0 1 1.415-.466 7.35 7.35 0 0 1 1.666-.179c1.015 0 1.911.18 2.688.537a5.437 5.437 0 0 1 1.988 1.47c.538.62.944 1.367 1.218 2.239.275.86.412 1.797.412 2.813V35h-5.553V23.194c0-.908-.21-1.613-.627-2.114-.418-.514-1.034-.77-1.846-.77-.609 0-1.182.13-1.72.393-.525.251-1.039.598-1.54 1.04V35h-5.554V16.422h3.44c.692 0 1.146.31 1.361.931l.323 1.075Zm23.875-2.293c1.41 0 2.694.22 3.852.663 1.159.442 2.15 1.075 2.974 1.899.836.824 1.481 1.827 1.935 3.01.466 1.17.699 2.49.699 3.959 0 1.481-.233 2.819-.699 4.013-.454 1.183-1.099 2.192-1.935 3.028-.824.824-1.815 1.463-2.974 1.917-1.158.442-2.442.663-3.852.663-1.421 0-2.717-.221-3.887-.663a8.948 8.948 0 0 1-3.01-1.917c-.836-.836-1.487-1.846-1.953-3.028-.454-1.194-.68-2.532-.68-4.013 0-1.469.226-2.789.68-3.96.466-1.182 1.117-2.185 1.953-3.01a8.724 8.724 0 0 1 3.01-1.898c1.17-.442 2.466-.663 3.887-.663Zm0 15.031c1.278 0 2.216-.448 2.813-1.344.61-.907.914-2.28.914-4.12 0-1.84-.305-3.207-.914-4.103-.597-.896-1.535-1.343-2.813-1.343-1.313 0-2.275.447-2.884 1.343-.61.896-.914 2.264-.914 4.103 0 1.84.305 3.213.914 4.12.61.896 1.57 1.344 2.884 1.344Zm17.38-12.738a13.62 13.62 0 0 1 1.111-.931 6.257 6.257 0 0 1 1.218-.717 6.785 6.785 0 0 1 1.416-.466 7.346 7.346 0 0 1 1.666-.179c1.015 0 1.911.18 2.687.537a5.446 5.446 0 0 1 1.989 1.47c.537.62.943 1.367 1.218 2.239.275.86.412 1.797.412 2.813V35h-5.554V23.194c0-.908-.209-1.613-.627-2.114-.418-.514-1.033-.77-1.845-.77-.609 0-1.183.13-1.72.393a6.749 6.749 0 0 0-1.541 1.04V35h-5.553V16.422h3.439c.693 0 1.147.31 1.362.931l.322 1.075Z"/><defs><linearGradient id="a" x1="9.459" x2="3.855" y1="24.841" y2="19.871" gradientUnits="userSpaceOnUse"><stop stop-color="#012592"/><stop offset="1" stop-color="#3B69F1"/></linearGradient><linearGradient id="b" x1="29.55" x2="23.629" y1="19.659" y2="24.841" gradientUnits="userSpaceOnUse"><stop stop-color="#3B69F1"/><stop offset="1" stop-color="#012592"/></linearGradient></defs></svg>
